X: 120
T:Polka
M:2/4
L:1/16
S:via Neil Brook
R:Polka
Z:Steve Mansfield
K:D
A2d2c2d2 | B2=c2B2A2 | FGAB A2F2 | G2E2 B2A2 | A2d2c2d2 | B2=c2B2A2 |
FGAB A2F2 | G2E2 D4 :: FGAB A2F2 | A2F2 G2E2 | EFGA G2E2 | G2E2 B2A2 |
FGAB A2F2 | A2F2 G2E2 |1 EFGA G2G2- | G2A2 F2D2 :|2 EFGA G2E2 | G2E2D4 ||

